X:1
T:Title
%%score { ( 1 3 ) | ( 2 4 ) }
L:1/8
Q:1/4=110
M:3/4
K:E
V:1 treble nm="Grand Piano"
V:3 treble 
V:2 bass 
V:4 bass 
V:1
 [EGB]2 [B,G]2 [=Gc]2 | [GB]2 G4 | E2 F2 E2 | G6 | [GB]2 G2 [=Gc]2 | [GB]2 G4 | G2 F2 c2 | %7
w: J.~Lincoln~Hall * *|||||||
 [B,DB]6 | [Ac]2 [GB]2 [FA]2 | [B,EG]2 [G,E]4 | [^B,A]2 G2 F2 | E6 | c2 c2 c2 | c2 B4 | %14
w: |||||||
 [CEA]2 [B,DG]2 [A,DF]2 | [G,B,E]6 | B6- | B6 | B6- |[M:9/8] B8- B |[M:3/4] B,2 E2 [DF]2 | %21
w: |||||||
 [EG]2 [GB]4 | c2 e2 c2 | [GB]2 [EG]4 | [DB]2 [DF]2 [DB]2 | B2 G2 E2 | C2 D2 E2 | [DG]4 z2 | %28
w: |||||||
 B,2 E2 [DF]2 | [EG]2 [GB]4 | [=Gc]2 [Ge]2 [Gc]2 | [GB]2 [^Ec]3 [EG] | [FA]2 [DB]3 [DF] | G2 B3 A | %34
w: ||||||
 z2 G4[Q:1/4=107][Q:1/4=103][Q:1/4=100][Q:1/4=96][Q:1/4=93][Q:1/4=89][Q:1/4=86] | [G,B,E]6 |] %36
w: ||
V:2
 E,2 E,2 [E,A,]2 | [E,B,]2 [E,B,E]4 | [A,C]2 [A,CE]2 [A,^B,]2 | [E,B,E]6 | %4
 [E,E]2 [E,B,]2 [E,^A,]2 | [E,B,]2 [E,B,E]4 | [F,A,E]2 [F,A,E]2 [F,A,E]2 | B,,6 | B,,2 B,2 B,2 | %9
 E,2 E,4 | G,,2 [G,^B,]2 [G,B,]2 | [C,G,C]6 | [A,CE]2 [A,CF]2 [^A,E=G]2 | [B,EG]2 [B,EG]4 | %14
 B,,2 B,,2 B,,2 | E,6 | z2 z2 [B,,A,]2 | [E,G,]6 | z2 z2 [E,G,]2 |[M:9/8] [B,,A,]8- [B,,A,] | %20
[M:3/4] [E,G,]2 [E,G,B,]2 [B,,B,]2 | [E,B,]2 [E,E]4 | [A,EA]2 [A,CA]2 [A,EA]2 | [E,E]2 [E,B,]4 | %24
 [B,,B,]2 [B,,B,]2 [B,,A,]2 | [E,G,E]2 [E,B,E]2 [E,G,B,]2 | [F,^A,]2 [F,A,C]2 [F,A,C]2 | %27
 z2 A,2 [B,,A,]-[B,,D,A,] | [E,G,]2 [E,G,B,]2 [B,,B,]2 | [E,B,]2 [E,B,]4 | %30
 [E,^A,]2 [E,A,]2 [E,A,]2 | [E,B,]2 [C,C]3 [C,C] | [F,C]2 [B,,B,]3 [B,,B,] | %33
 [E,B,E]2 [^E,G,=D]3 [F,A,C] | B,,B,, C,2 z F | E,6 |] %36
V:3
 x6 | x6 | x6 | x6 | x6 | x6 | x6 | x6 | x6 | x6 | x6 | x6 | x6 | x6 | x6 | x6 | z2 z2 D2 | E6 | %18
 z2 z2 E2 |[M:9/8] D8- D |[M:3/4] x6 | x6 | x6 | x6 | x6 | x6 | x6 | B,2 z F DC | x6 | x6 | x6 | %31
 x6 | x6 | x6 | [B,EG][G,E] [^A,E]2 [=A,D]2 | x6 |] %36
V:4
 x6 | x6 | x6 | x6 | x6 | x6 | x6 | x6 | x6 | x6 | x6 | x6 | x6 | x6 | x6 | x6 | x6 | x6 | x6 | %19
[M:9/8] x9 |[M:3/4] x6 | x6 | x6 | x6 | x6 | x6 | x6 | B,,4 .F,2 | x6 | x6 | x6 | x6 | x6 | x6 | %34
 z2 z2 B,,2 | x6 |] %36

